docs/assets/icons/email-alert.svg

<?xml version="1.0" encoding="UTF-8" standalone="no"?>
<svg
   viewBox="0 0 24 17"
   version="1.1"
   id="svg1"
   sodipodi:docname="email-alert.svg"
   inkscape:version="1.4.3 (0d15f75042, 2025-12-25)"
   width="24"
   height="17"
   xmlns:inkscape="http://www.inkscape.org/namespaces/inkscape"
   xmlns:sodipodi="http://sodipodi.sourceforge.net/DTD/sodipodi-0.dtd"
   xmlns="http://www.w3.org/2000/svg"
   xmlns:svg="http://www.w3.org/2000/svg">
  <defs
     id="defs1">
    <filter
       style="color-interpolation-filters:sRGB"
       inkscape:label="Drop Shadow"
       id="filter3"
       x="-0.020664601"
       y="-0.030996898"
       width="1.0499394"
       height="1.0749092">
      <feFlood
         result="flood"
         in="SourceGraphic"
         flood-opacity="0.498039"
         flood-color="rgb(0,0,0)"
         id="feFlood2" />
      <feGaussianBlur
         result="blur"
         in="SourceGraphic"
         stdDeviation="0.200000"
         id="feGaussianBlur2" />
      <feOffset
         result="offset"
         in="blur"
         dx="0.200000"
         dy="0.200000"
         id="feOffset2" />
      <feComposite
         result="comp1"
         operator="in"
         in="flood"
         in2="offset"
         id="feComposite2" />
      <feComposite
         result="comp2"
         operator="over"
         in="SourceGraphic"
         in2="comp1"
         id="feComposite3" />
    </filter>
    <filter
       style="color-interpolation-filters:sRGB"
       inkscape:label="Drop Shadow"
       id="filter4"
       x="-0.041329198"
       y="-0.0619938"
       width="1.0998789"
       height="1.1498183">
      <feFlood
         result="flood"
         in="SourceGraphic"
         flood-opacity="0.498039"
         flood-color="rgb(0,0,0)"
         id="feFlood1" />
      <feGaussianBlur
         result="blur"
         in="SourceGraphic"
         stdDeviation="0.400000"
         id="feGaussianBlur1" />
      <feOffset
         result="offset"
         in="blur"
         dx="0.400000"
         dy="0.400000"
         id="feOffset1" />
      <feComposite
         result="comp1"
         operator="in"
         in="flood"
         in2="offset"
         id="feComposite1" />
      <feComposite
         result="comp2"
         operator="over"
         in="SourceGraphic"
         in2="comp1"
         id="feComposite4" />
    </filter>
  </defs>
  <sodipodi:namedview
     id="namedview1"
     pagecolor="#999999"
     bordercolor="#000000"
     borderopacity="0.25"
     inkscape:showpageshadow="2"
     inkscape:pageopacity="0.0"
     inkscape:pagecheckerboard="true"
     inkscape:deskcolor="#999999"
     inkscape:zoom="24.291667"
     inkscape:cx="7.9656946"
     inkscape:cy="12.638079"
     inkscape:window-width="2560"
     inkscape:window-height="1368"
     inkscape:window-x="0"
     inkscape:window-y="0"
     inkscape:window-maximized="1"
     inkscape:current-layer="svg1" />
  <g
     id="g2"
     transform="translate(0.385935,-3.24271)">
    <path
       d="M 17.421098,7.8713551 9.6783876,12.710549 1.9356775,7.8713551 V 5.9356775 L 9.6783876,10.774871 17.421098,5.9356775 M 17.421098,4 H 1.9356775 C 0.87105489,4 0,4.8710549 0,5.9356775 V 17.549743 c 0,1.064622 0.87105489,1.935677 1.9356775,1.935677 H 17.421098 c 1.064622,0 1.935677,-0.871055 1.935677,-1.935677 V 5.9356775 C 19.356775,4.8710549 18.48572,4 17.421098,4"
       id="path1"
       style="display:inline;fill:#0091eb;fill-opacity:0.988235;stroke-width:0.967839"
       sodipodi:nodetypes="cccccccsssssssc" />
    <path
       d="M 23.22813,6.9035163 H 21.292453 V 12.710549 H 23.22813 V 6.9035163 m 0,7.7427097 h -1.935677 v 1.935678 h 1.935677 z"
       id="path2"
       style="fill:#4cae4f;fill-opacity:0.988235;stroke-width:0.967839"
       sodipodi:nodetypes="cccccccccc" />
  </g>
</svg>

<?xml version="1.0" encoding="UTF-8"?>
<svg version="1.1" viewBox="0 0 24 17" xmlns="http://www.w3.org/2000/svg"><g transform="translate(.48554 -3.2427)" fill-opacity=".98824"><path d="m1.9363 4.0005c-1.0646 0-1.9355.87092-1.9355 1.9355v11.613c0 1.0646.87092 1.9355 1.9355 1.9355h15.484c1.0646 0 1.9355-.87092 1.9355-1.9355v-11.613c0-1.0646-.87092-1.9355-1.9355-1.9355zm0 1.9355 7.7422 4.8379 7.7422-4.8379v1.9355l-7.7422 4.8398-7.7422-4.8398z" fill="#0091eb" stroke="#4cae4f" stroke-linecap="round" stroke-linejoin="round" stroke-width=".4"/><path d="m23.228 6.9035h-1.9357v5.807h1.9357v-5.807m0 7.7427h-1.9357v1.9357h1.9357z" fill="#4cae4f" stroke-width=".96784"/></g></svg>
